X:6936
T:The Humours of Scarriff
O:england
M:4/4
L:1/8
R:Reel
K:Ddor
Ad z e f2ed|cAGc AcGc|Ad z e f2ed|cAGE ED D2:|\
ecgc acgc|ecgc eaaa|ecgc acgc|edcd eddd|ecgc \
acgc|ecgc eaaa|eaag eged|cAGE D4||


